public/image/character_1.svg

<svg width="100" height="96" viewBox="0 0 100 96" fill="none" xmlns="http://www.w3.org/2000/svg">
<g clip-path="url(#clip0_772_1525)">
<path d="M91.2211 37.319C91.399 37.3655 91.577 37.4139 91.7529 37.4604C102.748 40.4186 102.748 55.3799 91.7529 58.338C91.577 58.3864 91.399 58.4329 91.2211 58.4814C91.3505 58.6073 91.4799 58.7332 91.6093 58.8611C99.5891 66.6914 91.7752 79.6457 80.7054 76.9394C80.5294 76.8967 80.3535 76.8522 80.1756 76.8096C80.2221 76.98 80.2666 77.1486 80.3111 77.3171C83.1361 87.9216 69.6134 95.407 61.4395 87.7627C61.308 87.6387 61.1766 87.5167 61.0431 87.3927C60.9946 87.5632 60.944 87.7336 60.8955 87.9022C57.8075 98.4349 42.1897 98.4349 39.1018 87.9022C39.0512 87.7336 39.0027 87.5632 38.9541 87.3927C38.8227 87.5167 38.6912 87.6407 38.5578 87.7627C30.3839 95.407 16.8611 87.9216 19.6862 77.3171C19.7307 77.1486 19.7772 76.98 19.8217 76.8096C19.6437 76.8541 19.4678 76.8967 19.2918 76.9394C8.22208 79.6457 0.408127 66.6914 8.3879 58.8611C8.51733 58.7351 8.64473 58.6092 8.77415 58.4814C8.59619 58.4349 8.41824 58.3864 8.2423 58.338C-2.75264 55.3799 -2.75264 40.4186 8.2423 37.4604C8.41824 37.412 8.59619 37.3655 8.77415 37.3171C8.64473 37.1911 8.5153 37.0652 8.3879 36.9374C0.408127 29.107 8.22208 16.1527 19.2918 18.8591C19.4678 18.9017 19.6437 18.9462 19.8217 18.9889C19.7752 18.8184 19.7307 18.6498 19.6862 18.4813C16.8611 7.87686 30.3839 0.391373 38.5578 8.03571C38.6892 8.1597 38.8207 8.28174 38.9521 8.40572C39.0006 8.23524 39.0512 8.06477 39.1018 7.89623C42.1897 -2.63653 57.8075 -2.63653 60.8955 7.89623C60.946 8.06477 60.9946 8.23524 61.0451 8.40572C61.1766 8.28174 61.308 8.15776 61.4395 8.03571C69.6134 0.391373 83.1361 7.87686 80.3111 18.4813C80.2666 18.6498 80.22 18.8184 80.1756 18.9889C80.3535 18.9443 80.5294 18.9017 80.7054 18.8591C91.7752 16.1527 99.5891 29.107 91.6093 36.9374C91.4799 37.0633 91.3525 37.1892 91.2231 37.3171L91.2211 37.319Z" fill="#FFA726"/>
<path d="M27.9821 41.2713C34.8563 41.2713 40.429 43.4267 40.429 46.0854C40.429 48.7441 34.8563 50.8994 27.9821 50.8994C21.1078 50.8994 15.5352 48.7441 15.5352 46.0854C15.5352 43.4267 21.1078 41.2713 27.9821 41.2713Z" fill="white"/>
<path d="M27.9824 41.2713C30.8851 41.2713 33.2382 43.4267 33.2382 46.0854C33.2382 48.7441 30.8851 50.8994 27.9824 50.8994C25.0797 50.8994 22.7266 48.7441 22.7266 46.0854C22.7266 43.4267 25.0797 41.2713 27.9824 41.2713Z" fill="#263C84"/>
<path d="M64.1832 41.2713C71.0575 41.2713 76.6302 43.4267 76.6302 46.0854C76.6302 48.7441 71.0575 50.8994 64.1832 50.8994C57.309 50.8994 51.7363 48.7441 51.7363 46.0854C51.7363 43.4267 57.309 41.2713 64.1832 41.2713Z" fill="white"/>
<path d="M64.1836 41.2713C67.0863 41.2713 69.4394 43.4267 69.4394 46.0854C69.4394 48.7441 67.0863 50.8994 64.1836 50.8994C61.2808 50.8994 58.9277 48.7441 58.9277 46.0854C58.9277 43.4267 61.2808 41.2713 64.1836 41.2713Z" fill="#263C84"/>
</g>
<defs>
<clipPath id="clip0_772_1525">
<rect width="100" height="95.7983" fill="white" transform="matrix(1 0 0 -1 0 95.7979)"/>
</clipPath>
</defs>
</svg>

<svg xmlns="http://www.w3.org/2000/svg" width="100" height="96" fill="none"><g clip-path="url(#a)"><path fill="#FFA726" d="M91.221 37.319q.268.07.532.141c10.995 2.959 10.995 17.92 0 20.878l-.532.143q.195.188.388.38c7.98 7.83.166 20.785-10.904 18.078q-.264-.064-.53-.13.07.256.136.508c2.825 10.605-10.698 18.09-18.872 10.446q-.196-.185-.396-.37-.073.255-.148.51c-3.088 10.532-18.705 10.532-21.793 0q-.076-.255-.148-.51-.197.186-.396.37c-8.174 7.644-21.697.159-18.872-10.446l.136-.507-.53.13C8.222 79.645.408 66.69 8.388 58.86q.194-.188.386-.38l-.532-.143c-10.995-2.958-10.995-17.92 0-20.878l.532-.143q-.195-.188-.386-.38c-7.98-7.83-.166-20.784 10.904-18.078l.53.13q-.07-.256-.136-.508C16.861 7.877 30.384.391 38.558 8.036l.394.37.15-.51c3.088-10.533 18.706-10.533 21.794 0l.15.51q.196-.187.394-.37C69.613.39 83.136 7.876 80.31 18.48q-.067.253-.135.508.265-.067.53-.13c11.07-2.706 18.883 10.248 10.903 18.078-.13.126-.256.252-.386.38z"/><path fill="#fff" d="M27.982 41.271c6.874 0 12.447 2.156 12.447 4.814 0 2.66-5.573 4.814-12.447 4.814s-12.447-2.155-12.447-4.814c0-2.658 5.573-4.814 12.447-4.814"/><path fill="#263C84" d="M27.982 41.271c2.903 0 5.256 2.156 5.256 4.814 0 2.66-2.353 4.814-5.256 4.814s-5.255-2.155-5.255-4.814c0-2.658 2.353-4.814 5.255-4.814"/><path fill="#fff" d="M64.183 41.271c6.874 0 12.447 2.156 12.447 4.814 0 2.66-5.572 4.814-12.447 4.814s-12.447-2.155-12.447-4.814c0-2.658 5.573-4.814 12.447-4.814"/><path fill="#263C84" d="M64.184 41.271c2.902 0 5.255 2.156 5.255 4.814 0 2.66-2.353 4.814-5.255 4.814-2.903 0-5.256-2.155-5.256-4.814 0-2.658 2.353-4.814 5.256-4.814"/></g><defs><clipPath id="a"><path fill="#fff" d="M0 95.798h100V0H0z"/></clipPath></defs></svg>
